X:1
T:Beyond the Blue Horizon
C:Richard A. Whiting
M:4/4
L:1/4
Q:1/4=120
K:G
D | G A B d | c2 B2 | A G A B | G3 z |
d c B A | G A B c | d4 | d3 z |
G A B d | c2 B A | G2 A2 | G4 |
B c d e | d c B A | G4 | G4 |]
